static/assets/images/networks/sonic.svg

<svg width="256" height="256" viewBox="0 0 256 256" fill="none" xmlns="http://www.w3.org/2000/svg">
<path d="M128 256C198.692 256 256 198.692 256 128C256 57.3075 198.692 0 128 0C57.3075 0 0 57.3075 0 128C0 198.692 57.3075 256 128 256Z" fill="black"/>
<path d="M148.108 151.222C110.406 162.193 79.2161 178.191 59.6946 196.947L58.8306 197.776C64.0507 202.575 69.7621 206.811 75.8703 210.412L77.1906 208.847C82.5476 202.515 88.2209 196.457 94.1889 190.696C110.164 175.275 128.441 161.923 148.129 151.201L148.108 151.222Z" fill="url(#paint0_radial_9885_1268)"/>
<path d="M28.0069 134.965C29.507 154.529 37.0038 172.466 48.7692 187.058L49.3118 186.536C61.3986 174.985 77.1319 164.477 96.1106 155.324C112.749 147.293 131.849 140.403 152.439 134.968H28L28.0069 134.965Z" fill="url(#paint1_radial_9885_1268)"/>
<path d="M104.731 54.569C138.465 87.1323 180.919 108.669 227.483 116.834C221.87 68.5563 179.457 31 127.923 31C114.312 31 101.344 33.633 89.4987 38.3737C94.325 44.0028 99.4077 49.4069 104.731 54.569Z" fill="url(#paint2_radial_9885_1268)"/>
<path d="M59.6946 58.553C79.2161 77.3225 110.406 93.307 148.108 104.298C128.424 93.5592 110.143 80.225 94.1682 64.8037C88.2024 59.0421 82.5303 52.9842 77.1734 46.6528L75.8496 45.0875C69.7446 48.6846 64.0395 52.9205 58.8306 57.7237L59.6946 58.553Z" fill="url(#paint3_radial_9885_1268)"/>
<path d="M104.731 200.931C99.3973 206.083 94.3141 211.487 89.4987 217.126C101.719 222.013 114.761 224.516 127.923 224.5C179.457 224.5 221.866 186.94 227.5 138.645C180.94 146.81 138.485 168.347 104.752 200.91L104.731 200.931Z" fill="url(#paint4_radial_9885_1268)"/>
<path d="M96.1141 100.176C77.1319 91.023 61.3952 80.5152 49.3118 68.964L48.7691 68.4422C37.0038 83.0307 29.507 100.971 28.0035 120.532H152.418C131.832 115.096 112.749 108.206 96.0934 100.155L96.1141 100.176Z" fill="url(#paint5_radial_9885_1268)"/>
<defs>
<radialGradient id="paint0_radial_9885_1268" cx="0" cy="0" r="1" gradientUnits="userSpaceOnUse" gradientTransform="translate(181.98 -45.6389) rotate(90) scale(316.176 222.851)">
<stop offset="0.317" stop-color="#FF4433"/>
<stop offset="0.597" stop-color="#FE9A4C"/>
<stop offset="1" stop-color="white"/>
</radialGradient>
<radialGradient id="paint1_radial_9885_1268" cx="0" cy="0" r="1" gradientUnits="userSpaceOnUse" gradientTransform="translate(187.925 4.2006) rotate(90) scale(359.379 159.919)">
<stop stop-color="#1C294B"/>
<stop offset="0.317" stop-color="#FF4433"/>
<stop offset="0.597" stop-color="#FE9A4C"/>
<stop offset="1" stop-color="white"/>
</radialGradient>
<radialGradient id="paint2_radial_9885_1268" cx="0" cy="0" r="1" gradientUnits="userSpaceOnUse" gradientTransform="translate(83.3095 249.107) rotate(90) scale(218.107 144.22)">
<stop stop-color="#1C294B"/>
<stop offset="0.317" stop-color="#FF4433"/>
<stop offset="0.597" stop-color="#FE9A4C"/>
<stop offset="1" stop-color="white"/>
</radialGradient>
<radialGradient id="paint3_radial_9885_1268" cx="0" cy="0" r="1" gradientUnits="userSpaceOnUse" gradientTransform="translate(182.016 301.139) rotate(90) scale(316.176 222.902)">
<stop stop-color="#1C294B"/>
<stop offset="0.317" stop-color="#FF4433"/>
<stop offset="0.597" stop-color="#FE9A4C"/>
<stop offset="1" stop-color="white"/>
</radialGradient>
<radialGradient id="paint4_radial_9885_1268" cx="0" cy="0" r="1" gradientUnits="userSpaceOnUse" gradientTransform="translate(83.3026 6.44553) rotate(90) scale(218.054 144.202)">
<stop stop-color="#1C294B"/>
<stop offset="0.317" stop-color="#FF4433"/>
<stop offset="0.597" stop-color="#FE9A4C"/>
<stop offset="1" stop-color="white"/>
</radialGradient>
<radialGradient id="paint5_radial_9885_1268" cx="0" cy="0" r="1" gradientUnits="userSpaceOnUse" gradientTransform="translate(187.95 251.314) rotate(90) scale(359.403 159.95)">
<stop stop-color="#1C294B"/>
<stop offset="0.317" stop-color="#FF4433"/>
<stop offset="0.597" stop-color="#FE9A4C"/>
<stop offset="1" stop-color="white"/>
</radialGradient>
</defs>
</svg>

<svg xmlns="http://www.w3.org/2000/svg" fill="none" viewBox="0 0 256 256"><path fill="#000" d="M128 256c70.692 0 128-57.308 128-128S198.692 0 128 0 0 57.308 0 128s57.308 128 128 128"/><path fill="url(#paint0_radial_9885_1268)" d="M148.108 151.222c-37.702 10.971-68.892 26.969-88.413 45.725l-.864.829a101 101 0 0 0 17.04 12.636l1.32-1.565a247 247 0 0 1 16.998-18.151c15.975-15.421 34.252-28.773 53.94-39.495z"/><path fill="url(#paint1_radial_9885_1268)" d="M28.007 134.965c1.5 19.564 8.997 37.501 20.762 52.093l.543-.522c12.087-11.551 27.82-22.059 46.799-31.212 16.638-8.031 35.738-14.921 56.328-20.356H28z"/><path fill="url(#paint2_radial_9885_1268)" d="M104.731 54.569c33.734 32.563 76.188 54.1 122.752 62.265C221.87 68.556 179.457 31 127.923 31c-13.611 0-26.579 2.633-38.424 7.374a242 242 0 0 0 15.232 16.195"/><path fill="url(#paint3_radial_9885_1268)" d="M59.695 58.553c19.521 18.77 50.711 34.754 88.413 45.745-19.684-10.739-37.965-24.073-53.94-39.494a247 247 0 0 1-16.995-18.151l-1.323-1.565a100 100 0 0 0-17.02 12.636z"/><path fill="url(#paint4_radial_9885_1268)" d="M104.731 200.931a232 232 0 0 0-15.232 16.195 103.1 103.1 0 0 0 38.424 7.374c51.534 0 93.943-37.56 99.577-85.855-46.56 8.165-89.015 29.702-122.748 62.265z"/><path fill="url(#paint5_radial_9885_1268)" d="M96.114 100.176c-18.982-9.153-34.719-19.66-46.802-31.212l-.543-.522c-11.765 14.589-19.262 32.529-20.765 52.09h124.414c-20.586-5.436-39.669-12.326-56.325-20.377z"/><defs><radialGradient id="paint0_radial_9885_1268" cx="0" cy="0" r="1" gradientTransform="scale(222.851 316.176)rotate(90 .48 .336)" gradientUnits="userSpaceOnUse"><stop offset=".317" stop-color="#F43"/><stop offset=".597" stop-color="#FE9A4C"/><stop offset="1" stop-color="#fff"/></radialGradient><radialGradient id="paint1_radial_9885_1268" cx="0" cy="0" r="1" gradientTransform="matrix(0 359.379 -159.919 0 187.925 4.2)" gradientUnits="userSpaceOnUse"><stop stop-color="#1C294B"/><stop offset=".317" stop-color="#F43"/><stop offset=".597" stop-color="#FE9A4C"/><stop offset="1" stop-color="#fff"/></radialGradient><radialGradient id="paint2_radial_9885_1268" cx="0" cy="0" r="1" gradientTransform="scale(144.22 218.107)rotate(90 -.282 .86)" gradientUnits="userSpaceOnUse"><stop stop-color="#1C294B"/><stop offset=".317" stop-color="#F43"/><stop offset=".597" stop-color="#FE9A4C"/><stop offset="1" stop-color="#fff"/></radialGradient><radialGradient id="paint3_radial_9885_1268" cx="0" cy="0" r="1" gradientTransform="scale(222.902 316.176)rotate(90 -.068 .885)" gradientUnits="userSpaceOnUse"><stop stop-color="#1C294B"/><stop offset=".317" stop-color="#F43"/><stop offset=".597" stop-color="#FE9A4C"/><stop offset="1" stop-color="#fff"/></radialGradient><radialGradient id="paint4_radial_9885_1268" cx="0" cy="0" r="1" gradientTransform="matrix(0 218.054 -144.202 0 83.303 6.446)" gradientUnits="userSpaceOnUse"><stop stop-color="#1C294B"/><stop offset=".317" stop-color="#F43"/><stop offset=".597" stop-color="#FE9A4C"/><stop offset="1" stop-color="#fff"/></radialGradient><radialGradient id="paint5_radial_9885_1268" cx="0" cy="0" r="1" gradientTransform="scale(159.95 359.403)rotate(90 .238 .937)" gradientUnits="userSpaceOnUse"><stop stop-color="#1C294B"/><stop offset=".317" stop-color="#F43"/><stop offset=".597" stop-color="#FE9A4C"/><stop offset="1" stop-color="#fff"/></radialGradient></defs></svg>
